app/dist/common/images/saga.svg

<svg fill="none" height="18" width="18" xmlns="http://www.w3.org/2000/svg"><path d="m0 0h18v18h-18z" fill="#a8d7d6"/><path clip-rule="evenodd" d="m3.12 8.512.41.148c.462.182 1.017.443 1.015 1.18 0 .763-.594 1.16-1.358 1.16-.663 0-1.187-.353-1.187-.353v-.647h.127l.025.1c.126.478.628.626.882.663.053.008.106.012.16.008 0 0 .826-.039.826-.689 0-.413-.253-.697-.714-.873l-.434-.162c-.645-.252-.872-.554-.872-1.04 0-.624.553-.985 1.198-1.007.65 0 1.13.346 1.13.346v.654h-.113l-.023-.08c-.188-.685-.767-.683-.767-.683a.906.906 0 0 0 -.166-.014c-.452 0-.747.217-.747.551 0 .3.137.545.608.738zm1.744 2.488 1.468-4h.563l1.469 4h-.62c-.482-1.255-1.978-1.48-1.978-1.48l-.55 1.48zm1.632-3.5-.613 1.703s.928.206 1.46.76zm6.004 3.5 1.468-4h.564l1.468 4h-.62c-.48-1.255-1.977-1.48-1.977-1.48l-.55 1.48zm1.633-3.5-.614 1.703s.929.206 1.46.76zm-3.543 1.833h.954v1.27a1.24 1.24 0 0 1 -.627.166c-.923 0-1.6-.91-1.6-1.78 0-.923.537-1.764 1.455-1.764 0 0 .83-.094 1.109.775h.11v-.583a2.356 2.356 0 0 0 -.333-.206c-.292-.144-.625-.211-1.014-.211h-.002c-1.244 0-1.96.845-1.96 2.047 0 1.22.838 1.953 2.008 1.953.536 0 1.143-.142 1.492-.401v-1.599h-1.592z" fill="#1e327c" fill-rule="evenodd"/></svg>

<!-- by TradingView --><svg width="18" height="18" fill="none" xmlns="http://www.w3.org/2000/svg"><path fill="#A8D7D6" d="M0 0h18v18H0z"/><path fill-rule="evenodd" clip-rule="evenodd" d="M3.12 8.512l.41.148c.462.182 1.017.443 1.015 1.18 0 .763-.594 1.16-1.358 1.16C2.524 11 2 10.647 2 10.647V10h.127l.025.1c.126.478.628.626.882.663.053.008.106.012.16.008 0 0 .826-.039.826-.689 0-.413-.253-.697-.714-.873l-.434-.162C2.227 8.795 2 8.493 2 8.007c0-.624.553-.985 1.198-1.007.65 0 1.13.346 1.13.346V8h-.113l-.023-.08c-.188-.685-.767-.683-.767-.683a.906.906 0 00-.166-.014c-.452 0-.747.217-.747.551 0 .3.137.545.608.738zM4.864 11l1.468-4h.563l1.469 4h-.62C7.262 9.745 5.766 9.52 5.766 9.52L5.216 11h-.352zM6.496 7.5l-.613 1.703s.928.206 1.46.76L6.496 7.5zM12.5 11l1.468-4h.564L16 11h-.62C14.9 9.745 13.403 9.52 13.403 9.52L12.853 11H12.5zM14.133 7.5l-.614 1.703s.929.206 1.46.76L14.133 7.5zM10.59 9.333h.954v1.27a1.24 1.24 0 01-.627.166c-.923 0-1.6-.91-1.6-1.78 0-.923.537-1.764 1.455-1.764 0 0 .83-.094 1.109.775h.11v-.583a2.356 2.356 0 00-.333-.206C11.366 7.067 11.033 7 10.644 7h-.002c-1.244 0-1.96.845-1.96 2.047 0 1.22.838 1.953 2.008 1.953.536 0 1.143-.142 1.492-.401V9H10.59v.333z" fill="#1E327C"/></svg>
